X:1
T:Pippi Långstrump
C:Jan Johansson
Q:1/4=90
M:C
K:F
L:1/4
V:1
C F A F | G2 B/A/G/F/ | E G C E | F2 A2 |
C F A F | G2 B/A/G/F/ | E G C E | F4 |
A A/A/ A A | B2 B B/A/ | G G/G/ G F | E F G z
A A/A/ A A | B2 B A | G G F E | F2 z2